app/dist/common/images/japan-systems-techniques-co-ltd.svg

<svg height="18" viewBox="0 0 18 18" width="18" xmlns="http://www.w3.org/2000/svg"><path d="m0 0h18v18h-18z" fill="#f0f3fa"/><path d="m4.76 12 .62-1h1.62v-2.91l1-1.67v4.58h2.72c.2.01.58-.3.58-.79 0-.57-.44-.56-.67-.56h-.04c-.2 0-1.82-.11-1.82-1.79-0-1.66 1.39-1.86 1.95-1.86h5.18l-.61 1h-1.29v5h-1v-5h-2.41c-.2.01-.71.36-.71.83 0 .57.58.6.71.6h.02c.25 0 1.8-.04 1.8 1.83 0 1.37-1.07 1.73-1.64 1.74zm-1.33-2.47h-1.24c-.21.42-.42 1.46.4 2.15.12.1.48.32 1.01.32.67 0 1.09-.17 1.58-1.08.4-.73 2.82-4.92 2.82-4.92h-1.3l-2.5 4.35c-.1.17-.32.51-.6.51-.34 0-.6-.3-.44-.75.12-.35.23-.54.27-.58z" fill="#12459b"/></svg>

<!-- by TradingView --><svg width="18" height="18" viewBox="0 0 18 18" xmlns="http://www.w3.org/2000/svg"><path fill="#F0F3FA" d="M0 0h18v18H0z"/><path d="m4.76 12 .62-1H7V8.09l1-1.67V11h2.72c.2.01.58-.3.58-.79 0-.57-.44-.56-.67-.56h-.04c-.2 0-1.82-.11-1.82-1.79C8.77 6.2 10.16 6 10.72 6h5.18l-.61 1H14v5h-1V7h-2.41c-.2.01-.71.36-.71.83 0 .57.58.6.71.6h.02c.25 0 1.8-.04 1.8 1.83 0 1.37-1.07 1.73-1.64 1.74H4.76ZM3.43 9.53H2.19c-.21.42-.42 1.46.4 2.15.12.1.48.32 1.01.32.67 0 1.09-.17 1.58-1.08C5.58 10.19 8 6 8 6H6.7l-2.5 4.35c-.1.17-.32.51-.6.51-.34 0-.6-.3-.44-.75.12-.35.23-.54.27-.58Z" fill="#12459B"/></svg>
